X:1
T:Title
%%score ( 1 2 ) ( 3 4 )
L:1/8
Q:1/4=108
M:4/4
K:C
V:1 treble nm="Grand Piano, Staff"
V:2 treble 
V:3 bass nm="Choir Pad, Crediton, CM"
V:4 bass 
V:1
 [EG]2 [Ec]2 [FB]2 [Gc]2 | [EG]2 [FA]2 [EG][DF] [CE]2 | [CG]2 AB [Cc]2 [B,F]2 | [CE]2 [B,D]6 | %4
w: By~Thomas~Clark,~1807 * * *||||
 G2 G2 GA [EB]2 | [Ge]2 [Fd]2 [Ec]2 [DB]2 | G2 AB [Gc]2 [Fd]2 | [Ec][DB] [Ec]6- | [Ec]2 z2 z4 |] %9
w: |||||
V:2
 x8 | x8 | z2 C2 z4 | x8 | z4 F2 z2 | x8 | z2 F2 z4 | x8 | x8 |] %9
V:3
 [C,G,]2 [C,G,]2 [D,G,]2 [E,G,]2 | [C,C]2 [F,C]2 [G,B,]2 [C,C]2 | CB, [F,A,]2 [E,G,]2 [D,G,]2 | %3
 [C,G,]2 [G,,G,]6 | .G,2 z2 z4 | [C,G,]2 [B,,G,]2 [C,G,]2 [G,B,]2 | [E,C]2 CD [E,C]2 [F,A,]2 | %7
 G,2 [C,G,]6- | [C,G,]2 z2 z4 |] %9
V:4
 x8 | x8 | E,2 z2 z4 | x8 | B,-[F,B,] [E,C]2 [D,F,]2 [C,G,]2 | x8 | z2 F,2 z4 | x8 | x8 |] %9

